X: 36899
T: Shoemaker's Fancy, The
R: jig
M: 6/8
K: Dmajor
FDE F2d|cAA BAG|FDE F2d|cAF G2A|
FDE F2d|cAA Ade|~fef ded|cA[DF] G2:|
|:cAA fed|cAA A2B|cAA fed|cAF G2A|
cAA fed|cAA Ade|~fef ded|cA[DF] G2:|

